speaker-multiple.svg

<svg fill="currentColor" viewBox="0 0 24 24"><path d="M14 10a3 3 0 0 0-3 3 3 3 0 0 0 3 3 3 3 0 0 0 3-3 3 3 0 0 0-3-3m0 8a5 5 0 0 1-5-5 5 5 0 0 1 5-5 5 5 0 0 1 5 5 5 5 0 0 1-5 5m0-16a2 2 0 0 1 2 2 2 2 0 0 1-2 2 2 2 0 0 1-2-2 2 2 0 0 1 2-2m5-2H9a2 2 0 0 0-2 2v16a2 2 0 0 0 2 2h10a2 2 0 0 0 2-2V2a2 2 0 0 0-2-2M5 22h12v2H5a2 2 0 0 1-2-2V4h2"/></svg>

<svg  viewBox="0 0 24 24" fill="currentColor"><path  d="M14,10A3,3 0 0,0 11,13A3,3 0 0,0 14,16A3,3 0 0,0 17,13A3,3 0 0,0 14,10M14,18A5,5 0 0,1 9,13A5,5 0 0,1 14,8A5,5 0 0,1 19,13A5,5 0 0,1 14,18M14,2A2,2 0 0,1 16,4A2,2 0 0,1 14,6A2,2 0 0,1 12,4A2,2 0 0,1 14,2M19,0H9A2,2 0 0,0 7,2V18A2,2 0 0,0 9,20H19A2,2 0 0,0 21,18V2A2,2 0 0,0 19,0M5,22H17V24H5A2,2 0 0,1 3,22V4H5"/></svg>
